X:1
T:Title
%%score { ( 1 4 6 ) | ( 2 3 5 ) }
L:1/8
M:3/4
K:F
V:1 treble nm="Grand Piano"
V:4 treble 
V:6 treble 
V:2 bass 
V:3 bass 
V:5 bass 
V:1
 z2 z2[Q:1/4=100] [A,F]2 | [CFA]4 .[CEG]2 | [DF]4 [DA]2 | z2 G2 E2 | F4 A2 | G2 c2 E2 | %6
 F2 E2 [=B,D]2 | C6- |[M:2/4] C4 |[M:1/4] c2 |[M:3/4] c>B A2 B2 | c4 d2 | c>B A2 B2 | c4 F2 | %14
 d2 c2 cA | F2- [CFA]2 [B,EG]2 | F6- | F4 z2 |[M:4/4] c2 A>B c3 c | dcd[Be] [Af]3 [Ac] | %20
 [Ac][Bd][Ac]B AcBA |[M:3/4] A4 G2 |[M:1/4] c2 |[M:4/4] f2 ed c2 z F | [Ec]4 z2 [Ac]2 | %25
 [Af]2 [ce][Bd] [Ac]>B Ac |[M:7/8] dcd [Be] [Af]3 |[M:1/8] [FA]/B/ | %28
[M:4/4] [FAc][Ac][_Ad][Ad] [C=Ac]3 [FA]/B/ | [FAc][Ac][_Ad][Ad] [C=Ac]2 z c | z .c3 z .d3 | %31
 C2 z B A c2 c | z A[EG]B Ac[GB][FA] | [FA]4 G2 z c | d2 [Be]2 [Af]2 z c | d2 [Be]2 [Af]2 z [Ac] | %36
 [Ac][GB][GB]A dcBA | A4 G2 z [CEG] | F->[FA] AA z GF[_EFA] | F->[FB] BB z G GA/B/ | c>c cc d3 d | %41
 e>e ee f2 f2 | e6 c2 | dfed c>d c[DFB] |[M:3/4] [CFA]2 .[CEG]2 [A,F]2 |] %45
V:2
 z2 z2 F,2 | F,4 z B, | z2 F,2 [C,^F,]2 | G,2 B,2 [C,B,C]2 | [F,A,C]4 [F,C]2 | [E,G,C]4 [C,G,C]2 | %6
 [F,A,D]2 [G,C]2 [G,,F,]2 | [C,E,]6- |[M:2/4] [C,E,]4 |[M:1/4] E2 | %10
[M:3/4][K:treble] F4[K:bass] z2 | [A,F]4 [B,F]2 | F4[K:bass][K:treble] z2 | [A,F]4 [F,A,]2 | %14
 F4[K:bass] .A,2 | D,2 C,2 C,2 | [F,A,]6- | [F,A,]4 z2 | %18
[M:4/4][K:treble] [F,A,F]2 [F,F]>[F,G,F] [F,A,F]3 [F,A,F] | .B,2 z2[K:bass] z4 | %20
 [F,F]2 z[K:treble] G [CF]-[A,CF]C-[F,CF] |[M:3/4] F4 E2 |[M:1/4] [CEG]2 | %23
[M:4/4] [=B,DG]2 G[FA] G2- [G,DG]2 | [C,C]4 z2 [F,C]2 | [F,C]2 [F,C]2 z z/[K:treble] G/ F[F,A,F] | %26
[M:7/8] [F,F]-[F,A,F-][B,F][K:bass] [G,C] [F,C]3 |[M:1/8] z/ G/ | %28
[M:4/4] z C=B,B, z2 z[K:treble] z/ G/ | z C=B,B, F,2 z[K:treble] A | %30
 z .A3[K:bass] z .B3[K:treble] | z .G3[K:treble] z4[K:bass] | %32
 F,-[F,C] z[K:treble] G FA[K:bass]E,F, | z4 E2 z[K:treble] [A,CF] | %34
 [B,F]2[K:bass] [G,C]2 [F,C]2 z[K:treble] [A,CF] | [B,F]2[K:bass] [G,C]2 [F,C]2 z [F,C] | %36
 [E,C]2 z[K:treble] F F-[A,CF]C-[F,CF] | C6 z2[K:bass] | z z/ C/ CC [F,CF][E,^C][D,D]C, | %39
 B,,2[K:treble] F2 z2[K:bass] z [CF] | [A,CF]>[A,CF] [A,CF][A,CF] [B,F]3 [=B,DG] | %41
 [CG]>[CG] [^CGB][CGB] [DFA]2 [=B,DG]2 | [CG]6 [A,CF]2 | [B,F]4 F4[K:bass] |[M:3/4] C,2 z B, F,2 |] %45
V:3
 x6 | z2 z2 C,2 | D,4 z2 | B,,4 z2 | x6 | x6 | x6 | x6 |[M:2/4] x4 |[M:1/4] C z | %10
[M:3/4][K:treble] A,>G,[K:bass] F,2 [G,E]2 | x6 | A,>[K:bass]G, F,2[K:treble] [G,E]2 | x6 | %14
 B,2 [A,C]2[K:bass] [F,F]-[F,CF] | x6 | x6 | x6 |[M:4/4][K:treble] x8 | %19
 [F,F]-[F,A,F-][B,F][K:bass][G,C] [F,C]3 [F,C] | z2 [E,C]2[K:treble] .F,2 .[G,E]2 |[M:3/4] C6 | %22
[M:1/4] x2 |[M:4/4] z2 C2 [G,E]2 z2 | x8 | z4 [F,C]4[K:treble] |[M:7/8] B, z z[K:bass] z z z2 | %27
[M:1/8] [F,C] |[M:4/4] z4 z2 z[K:treble] C | F,2 F,2 z4[K:treble] | %30
 .F2 z A[K:bass] z2 z[K:treble] B | z2 z[K:treble] G F A2[K:bass] [F,A,F] | %32
 .A,2 [C,C]2[K:treble] [F,C]2[K:bass] z2 | C,6 z2[K:treble] | x2[K:bass] x5[K:treble] x | %35
 x2[K:bass] x6 | z2 [F,C]2[K:treble] .B,2 .[G,E]2 | F4 E2 z[K:bass] C, | F,2 [F,F]2 z4 | %39
 z z/[K:treble] D/ [B,D][A,D] [G,CG][K:bass][F,^C] [E,=C]F,/G,/ | x8 | x8 | x8 | %43
 z DC[B,F] A,->[A,B,][K:bass] A,B,, |[M:3/4] z2 C,2 z2 |] %45
V:4
 x6 | x6 | A,2 z2 z2 | D4 z2 | x6 | x6 | x6 | x6 |[M:2/4] x4 |[M:1/4] z B, |[M:3/4] x6 | x6 | x6 | %13
 x6 | x6 | [B,B]2 z2 z2 | x6 | x6 |[M:4/4] x8 | x8 | x8 |[M:3/4] x6 |[M:1/4] x2 | %23
[M:4/4] z4 z2 =B2 | x8 | x8 |[M:7/8] x7 |[M:1/8] x |[M:4/4] x8 | x8 | .A2 z c .[GB]2 z d | %31
 [EG] .B3 z4 | F2 z2 z2 C2 | C6 z2 | x8 | x8 | x8 | x8 | [CA]2 z2 A4 | [DB]2 z2 B4 | x8 | x8 | x8 | %43
 x8 |[M:3/4] x6 |] %45
V:5
 x6 | x6 | x6 | x6 | x6 | x6 | x6 | x6 |[M:2/4] x4 |[M:1/4] x2 |[M:3/4][K:treble] x2[K:bass] x4 | %11
 x6 | x3/2[K:bass] x5/2[K:treble] x2 | x6 | x4[K:bass] x2 | x6 | x6 | x6 |[M:4/4][K:treble] x8 | %19
 x3[K:bass] x5 | x3[K:treble] x5 |[M:3/4] x6 |[M:1/4] x2 |[M:4/4] x8 | x8 | x11/2[K:treble] x5/2 | %26
[M:7/8] x3[K:bass] x4 |[M:1/8] x |[M:4/4] F,4 F,4[K:treble] | x7[K:treble] x | %30
 z2 F,2[K:bass] [C,C]2 C,2[K:treble] | C,2 C,2[K:treble] [F,C]4[K:bass] | %32
 x3[K:treble] x3[K:bass] x2 | x7[K:treble] x | x2[K:bass] x5[K:treble] x | x2[K:bass] x6 | %36
 x3[K:treble] x5 | x7[K:bass] x | x8 | x3/2[K:treble] x7/2[K:bass] x3 | x8 | x8 | x8 | %43
 x6[K:bass] x2 |[M:3/4] x6 |] %45
V:6
 x6 | x6 | x6 | x6 | x6 | x6 | x6 | x6 |[M:2/4] x4 |[M:1/4] x2 |[M:3/4] x6 | x6 | x6 | x6 | x6 | %15
 x6 | x6 | x6 |[M:4/4] x8 | x8 | x8 |[M:3/4] x6 |[M:1/4] x2 |[M:4/4] x8 | x8 | x8 |[M:7/8] x7 | %27
[M:1/8] x |[M:4/4] x8 | x8 | z2 C2 z2 C2 | z2 C2 z4 | x8 | x8 | x8 | x8 | x8 | x8 | x8 | x8 | x8 | %41
 x8 | x8 | x8 |[M:3/4] x6 |] %45

